src/assets/images/free-demat-compaign/insurance.svg

<svg width="44" height="48" viewBox="0 0 44 48" fill="none" xmlns="http://www.w3.org/2000/svg">
<path d="M0.0200553 12.5453C0.0200553 11.5074 -0.0250692 10.4846 0.0200553 9.44676C0.0802213 8.37882 0.681881 7.68691 1.67462 7.31087C6.14194 5.62622 10.6243 3.95662 15.0916 2.27197C16.9568 1.58006 18.8069 0.87311 20.657 0.16616C21.2887 -0.0745042 21.8904 -0.0444212 22.5221 0.196243C28.6891 2.51263 34.8562 4.84406 41.0533 7.13037C42.4822 7.65682 43.129 8.55931 43.1741 10.0635C43.2944 14.967 42.768 19.7953 41.4895 24.5334C39.8499 30.6703 37.0673 36.1905 32.615 40.7932C29.727 43.7865 26.3427 46.0728 22.5522 47.7875C21.8152 48.1185 21.0781 48.0432 20.3261 47.6973C10.5792 43.1397 4.74308 35.3933 1.80999 25.2253C0.651798 21.1039 0.0802213 16.8622 0.0200553 12.5453ZM20.8375 24.1423C20.296 23.5858 19.7996 23.0744 19.3033 22.5629C18.8069 22.0515 18.3105 21.5401 17.7841 21.0588C16.7913 20.1112 15.3323 20.1262 14.3997 21.0588C13.4521 22.0064 13.4371 23.4654 14.3997 24.4431C15.9941 26.0676 17.5885 27.662 19.213 29.2564C20.1907 30.2191 21.6347 30.2341 22.5973 29.2564C26.0569 25.6615 29.5014 22.0515 32.9459 18.4416C33.4423 17.9302 33.6528 17.2834 33.5626 16.5764C33.4423 15.5837 32.9008 14.8617 31.9381 14.5458C30.9755 14.23 30.1181 14.4556 29.4111 15.1776C27.6663 16.9826 25.9366 18.8026 24.1917 20.6226C23.0937 21.7657 21.9957 22.9239 20.8224 24.1423H20.8375Z" fill="white"/>
</svg>

<svg width="44" height="48" fill="none" xmlns="http://www.w3.org/2000/svg"><path d="M.02 12.545c0-1.038-.045-2.06 0-3.098.06-1.068.662-1.76 1.655-2.136 4.467-1.685 8.95-3.354 13.417-5.039C16.957 1.58 18.807.873 20.657.166c.632-.24 1.233-.21 1.865.03C28.69 2.513 34.856 4.844 41.053 7.13c1.43.527 2.076 1.43 2.121 2.933.12 4.904-.406 9.732-1.684 14.47-1.64 6.137-4.423 11.657-8.875 16.26-2.888 2.993-6.272 5.28-10.063 6.995-.737.33-1.474.255-2.226-.09C10.58 43.14 4.743 35.392 1.81 25.224.652 21.104.08 16.862.02 12.545zm20.817 11.597-1.534-1.58c-.496-.51-.992-1.022-1.519-1.503-.993-.948-2.452-.933-3.384 0-.948.947-.963 2.406 0 3.384a362.846 362.846 0 0 0 4.813 4.813c.978.963 2.422.978 3.384 0 3.46-3.595 6.904-7.204 10.349-10.814a2.196 2.196 0 0 0 .617-1.866c-.12-.992-.662-1.714-1.625-2.03-.962-.316-1.82-.09-2.527.632-1.745 1.805-3.474 3.625-5.22 5.445-1.097 1.143-2.195 2.3-3.369 3.52h.015z" fill="#fff"/></svg>
